X:2
T:The Dance of the Honeybees
C:Charlie Lennon
S:Davy Muir
N:Play twice through
N:The Cashel Set, figure 4, tune 2 of 2
Z:Gordon Turnbull, Edinburgh
Z:gturnbull@theflow.org.uk
Z:http://www.theflow.org.uk
R:Hornpipe
L:1/8
M:4/4
K:D
AG | F2 F>E D>FA>F | G2 F>G E2 E>F |\
G2 G>A B>de>d | c>de>d c>AG>E |
F2 F>E D>FA>F | G2 F>G E2 E>F |\
G2 G>A B>de>d | c>AG>E D2 :||
(3ABc | d2 a2 f2 d2 | (3Bcd A>FD>F A>F |\
B>ee>d B>ee>d | c>de>f g2 f>e | 
d2 a2 f2 d2 | (3Bcd A>FD>F A>F |\
B>ee>d c>ee>d | c>AG>E D2 :||
